!!!OTL: Taonan
!!!ARE: Asia, China,ÿHebei, Fucheng
!! IV, 58
!!!SCT: C1634
!!!YEM: Copyright 1995, estate of Helmut Schaffrath.
**kern
*ICvox
*Ivox
*M2/4
*k[f#]
*G:
{8dd
16gg
16ee
16ee
16dd
16dd
16b
=1
2b
=2
8dd
16gg
16ee
16ee
16dd
16dd
16b
=3
2b}
=4
{8b
16b
16dd
8ee
16gg
16ee
=5
8b
16dd
16b
8a
8g
=6
8dd
16dd
16b
16a
16g
8e
=7
2g}
=8
{16g
16a
16dd
16b
4a
=9
8dd
16dd
16b
16a
16g
8e
=10
2g}
==
!!!AGN: Xiaodiao
!!!AMT: simple duple
!!!AIN: vox
!!!EED: Helmut Schaffrath
!!!EEV: 1.0
*-
